X:1
T:Sommarminnen
T:W. Peterson-Berger (1867-1942)
T:Text: W. P.-B.
T:Sommarminnen
T:©CPDL Edition may be freely distributed, duplicated, performed and recorded PA Aglert
T:©CPDL Edition may be freely distributed, duplicated, performed and recorded PA Aglert
T:©CPDL Edition may be freely distributed, duplicated, performed and recorded PA Aglert
T:©CPDL Edition may be freely distributed, duplicated, performed and recorded PA Aglert
T:©CPDL Edition may be freely distributed, duplicated, performed and recorded PA Aglert
T:©CPDL Edition may be freely distributed, duplicated, performed and recorded PA Aglert
C:W. Peterson-Berger (1867-1942)
Z:©CPDL Edition may be freely distributed, duplicated, performed and recorded
Z:PA Aglert
%%score [ 1 2 3 4 ]
L:1/8
Q:1/4=90
M:3/4
K:G
V:1 treble nm="S"
V:2 treble nm="A"
V:3 treble-8 nm="T"
V:4 bass nm="B"
V:1
"^Molto tranquillo"!mf! D |!<(! (3(DG)B!<)!!>(! B2 A>!>)!G |!<(! B>!<)!A!f!!>(! e2 d!>)!B | %3
w: Det|är * så däj- ligt i|som- mar- ti- der, när|
!mp! (3(GF)E E2 D^D |!<(! E>!<)!G!>(! B2 AD!>)! |!<(! (3(DE)F (GB) df!<)! |!>(! e2 d3!>)!!p! d | %7
w: sun- * nan ljum ge- nom|rym- den gli- der och|lå- * ter sky- * ar- na|seg- la och|
 c>G B2 AB | A>E G2 FG | F>C E2 DF |!<(! A!<)!c!f!!>(! e4-!>)! |!p! e2 z!p! A AA | z2 z A AA | %13
w: loc- kar björ- kar och|mör- ka gra- nar med|mju- ka dan- ser till|sus och sång,|* som min- nen|fram- ma- nar|
 z2 z A (3BAG |!<(! A!<)!c!f!!>(! e3 d!>)! |!mp! c>^G (BA) =GE |!>(! !courtesy!^F>E D4!>)! | %17
w: och bin- der med|ljuv- ligt tvång, ja|hjär- tan bin- * der med|ljuv- ligt tvång,|
!p!!>(! !>!A4 G2!>)! |!pp! F4 z!mf! D |!<(! (3(DG)B!<)! B2!>(! A>G!>)! | %20
w: ljuv- ligt|tvång. O,|fjär- * ran strå- lan- de|
!<(! B>A!<)!!f!!>(! e2 d>B!>)! |"^dim." (3(AG)A B2 G>E | F>G!p! (!fermata!F2!>(! F2 | %23
w: som- mar- da- gar, hur|står * min läng- tan- de|håg till er, *|
 E2)!>)! z2 z2 | z2 z2!p!!<(! (EF) | (G6!<)! |!>(! _B4-)!>)! B!p!^A | %27
w: |till *|er,|* * till|
 (3!courtesy!=Bz!<(!D (3(DG)!<)!B!f! (3:2:2(f2 e) |!>(! d2-!>)! (3:2:2d2 B!<(! (3GD!<)!E | %29
w: er! I grö- * na ha- *|gar, * i dröm- men er|
!f!!>(! (=F6 | E4)!>)!!p!!<(! E2!<)! |!mf! c>B (AG) E!p!F |!<(! E2 G2 (Ac)!<)! |!mf!!>(! (e6!>)! | %34
w: glans|* jag|ser, I äng- * ar och|ha- gar, i *|dröm-|
!p!!>(! _e6)!>)! |!pp! d4 z!p! D |!<(! D6!<)! |!>(! D6!>)! |!pp! G6- | G2 z2 z2 |] %40
w: |men er|glans|jag|ser.||
V:2
!mf! D |!<(! (3:2:2D2 G!<)!!>(! E2 E>!>)!E |!<(! F>!<)!F!f!!>(! G2 GD!>)! | %3
w: Det|är så däj- ligt i|som- mar- ti- der, när|
!mp! (3:2:2^C2 C =C2 CC |!<(! C>C!<)!!>(! C2 CC!>)! |!<(! (3:2:2B,2 D G2 G!<)!G | %6
w: sun- nan ljum ge- nom|rym- den gli- der och|lå- ter sky- ar- na|
!>(! G2!>)! F3!p! F | G>G F2 EF | E>E C2 CC | C>C C2 CC |!<(! E!<)!G!f! c4- | %11
w: seg- la och|loc- kar björ- kar och|mör- ka gra- nar med|mju- ka dan- ser till|sus och sång,|
!p!!>(! c2 z!p! =F FF!>)! | z2 z =F FF | z2 z =F (3FFF |!<(! =FA!<)!!f!!>(! ^G3 B!>)! | %15
w: * som min- nen|fram- ma- nar|och bin- der med|ljuv- ligt tvång, ja|
!mp! A>E E2 EE |!>(! ^C>C =C4!>)! |!p!!>(! !>!C4 C2!>)! |!pp! C4 z!mf! C | %19
w: hjär- tan bin- der med|ljuv- ligt tvång,|ljuv- ligt|tvång. O,|
!<(! (3:2:2B,2 D!<)! E2!>(! E>G!>)! |!<(! G>F!<)!!f!!>(! =F2 F>F!>)! |"^dim." (3:2:2=F2 F E2 ^C>C | %22
w: fjär- ran strå- lan- de|som- mar- da- gar, hur|står min läng- tan- de|
 E>E!p! !fermata!E2!>(! ^D2 | E2!>)! z2 z2 | z2 z2!p!!<(! (B,C) | ^C6-!<)! |!>(! C4- C!>)!!p!^C | %27
w: håg till er, till|er,|till *|er,|* * till|
 (3Dz!<(!D (3:2:2D2!<)! G!f! (3GAG |!>(! (3(FE)D!>)! G2 (3D z z |!f! z3/2!>(! D/ D4- | %30
w: er! I sol- skens- äng- ar och|grö- * na ha- gar,|i dröm-|
 D2!>)!!p! D2 D2 | C3 z z!p! ^A, |!<(! B,2 CD EF!<)! |!mf!!>(! G4 z G!>)! |!p!!>(! G2 G2 z G!>)! | %35
w: * men er|glans, i|dröm- men er glans jag|ser, i|dröm- men i|
!pp! G2 G2 z!p!!<(! B, | C6!<)! |!>(! C6!>)! |!pp! B,6- | B,2 z2 z2 |] %40
w: dröm- men er|glans|jag|ser.||
V:3
!mf! d |!<(! (3:2:2B2!<)! d!>(! ^c2 c>!>)!c |!<(! !courtesy!=c>!<)!c!f!!>(! B2 BB!>)! | %3
w: Det|är så däj- ligt i|som- mar- ti- der, när|
!mp! (3:2:2B2 B A2 AA |!<(! A>!<)!A!>(! G2 FF!>)! |!<(! (3:2:2G2 B (dG) B!<)!d | %6
w: sun- nan ljum ge- nom|rym- den gli- der och|lå- ter sky- * ar- na|
!>(! (3(AB^c)!>)! A3!p! d | e>e d2 cd | c>c B2 AB | A>A G2 FA |!<(! c!<)!e!f! g3!mf! f | %11
w: seg- * * la och|loc- kar björ- kar och|mör- ka gra- nar med|mju- ka dan- ser till|sus och sång, som|
 =f>c e2 de | d>A c2 Bc | B>=F A2 GB |!<(! c!<)!A!f!!>(! B3 e!>)! |!mp! e>d e2 cc | %16
w: fram de lju- sas- te|min- nen ma- nar och|hjär- tan bin- der med|ljuv- ligt tvång, ja|hjär- tan bin- der med|
!>(! e>G F4!>)! |!p!!>(! !>!e4 _e2!>)! |!pp! d4 z!mf! d |!<(! (3:2:2d2!<)! d ^c2!>(! c>c!>)! | %20
w: ljuv- ligt tvång,|ljuv- ligt|tvång. O,|fjär- ran strå- lan- de|
!<(! !courtesy!=c>!<)!c!f!!>(! B2 B>B!>)! |"^dim." (3(cB)A G2 B>B | ^A>B!p! !fermata!A2!>(! B2 | %23
w: som- mar- da- gar, hur|står * min läng- tan- de|håg till er, till|
 G2!>)! z2 z2 | z2 z2!p!!<(! (GA) | _B4 _e2!<)! |!>(! g6-!>)!!p! | (3gz!<(!B (3(dB)!<)!G!f! (3AAA | %28
w: er,|till *|er, till|er!|* I sol- * skens- äng- ar och|
!>(! (3(AG)F!>)! G2 G z |!f! z3/2!>(! =F/ (F2 G2 | ^G2)!>)!!p! G2 G2 | A3 z z!f! e | g>f (ed) GA | %33
w: grö- * na ha- gar,|i dröm- *|* men er|glans, i|grö- na ha- * gar, i|
!>(! ^A2 A2 z A!>)! |!p!!>(! ^A2 A2 z A!>)! |!pp! B2 B2 z!p!!<(! G | E6!<)! |!>(! F6!>)! | %38
w: dröm- men i|dröm- men i|dröm- men er|glans|jag|
!pp! G6- | G2 z2 z2 |] %40
w: ser.||
V:4
!mf! D, |!<(! (3(D,G,)!<)!B,!>(! G,2 G,>!>)!G, |!<(! G,>!<)!G,!f!!>(! G,2 G,G,!>)! | %3
w: Det|är * så däj- ligt i|som- mar- ti- der, när|
!mp! (3(E,F,)G, G,2 F,=F, |!<(! E,>!<)!_E,!>(! D,2 D,!>)!D, |!<(! (3:2:2G,2 G, E,2 E,E,!<)! | %6
w: sun- * nan ljum ge- nom|rym- den gli- der och|lå- ter sky- ar- na|
!>(! (3:2:2(D2 A,)!>)! D,3!p! D, | D,>D, D,2 D,D, | D,>D, D,2 D,D, | D,>D, D,2 D,D, | %10
w: seg- * la och|loc- kar björ- kar och|mör- ka gra- nar med|mju- ka dan- ser till|
 D,4-!>(! D,D,!>)! | D,2 z!p! D, D,D, | z2 z D, D,D, | z2 z G,, (3G,,B,,D, | %14
w: sus * och|sång, som min- nen|fram- ma- nar|och bin- der med|
!<(! G,!<)!=F,!f!!>(! E,3 ^G,,!>)! |!mp! A,,>B,, C,2 CB, |!>(! ^A,>A, =A,4!>)! | %17
w: ljuv- ligt tvång, ja|hjär- tan bin- der med|ljuv- ligt tvång,|
!p!!>(! !>![D,G,]4 A,,2!>)! |!pp! D,4 z!mf! D, |!<(! (3:2:2G,2!<)! G, G,2!>(! G,>E,!>)! | %20
w: ljuv- ligt|tvång. O,|fjär- ran strå- lan- de|
!<(! D,>!<)!D,!f!!>(! G,,2 G,>G,!>)! |"^dim." (3:2:2[D,G,]2 [D,G,] ^C,2 E,>G, | %22
w: som- mar- da- gar, hur|står min läng- tan- de|
 F,>F,!p! !fermata!F,2!mf! B,,2 |!<(! E,4 G,2!<)! | B,4!p!!<(! E,2 | _E,6-!<)! | %26
w: håg till er, till|er, till|er, till|er!|
!>(! E,4-!>)! E,!p!_E, |!<(! (3(D,G,)!<)!B,!f! (3B,G,E, (3:2:2^C,2 C, | %28
w: * * I|sol- * skens- äng- ar och grö- na|
!>(! !courtesy!=C,2!>)! B,,2- B,, z |!f! z3/2!>(! _B,,/ (B,,4 | !courtesy!=B,,2)!>)!!p! E,2 E,2 | %31
w: ha- gar, *|i dröm-|* men er|
 [A,,E,]3 z z!p! C, |!<(! B,,3 B,, C,2-!<)! |!mf!!>(! C,2 C,2 z C,!>)! |!p!!>(! ^C,2 C,2 z C,!>)! | %35
w: glans, jag|ser, i dröm-|* men i|dröm- men i|
!pp! D,2 D,2 z!p!!<(! D, | D,6!<)! |!>(! D,6!>)! |!pp! [G,,D,]6- | [G,,D,]2 z2 z2 |] %40
w: dröm- men er|glans|jag|ser.||

